icons/glyphs/glyph-user.svg

<?xml version="1.0" encoding="UTF-8" standalone="no"?><svg height="16" viewBox="0 0 4.2333332 4.2333332" width="16" xmlns="http://www.w3.org/2000/svg"><sodipodi:namedview/><metadata><rdf:RDF><cc:Work><dc:format>image/svg+xml</dc:format><dc:type/><dc:title/></cc:Work></rdf:RDF></metadata><path d="m2.1168686.00000003a.78701116.78701116 0 0 0 -.7872294.78682604.78701116.78701116 0 0 0  .7043428.78278253c-.6179201.030829-1.18377875.4259046-1.49925605 1.0601526v1.603572h3.16388125v-1.5683953c-.3103813-.6516659-.8825226-1.0611502-1.5101719-1.094925a.78701116.78701116 0 0 0  .71526-.78318683.78701116.78701116 0 0 0 -.7868267-.78682604z" fill="#d0d0d0"/></svg>

<?xml version="1.0" encoding="UTF-8" standalone="no"?>
<!-- Created with Inkscape (http://www.inkscape.org/) -->

<svg
   xmlns:dc="http://purl.org/dc/elements/1.1/"
   xmlns:cc="http://creativecommons.org/ns#"
   xmlns:rdf="http://www.w3.org/1999/02/22-rdf-syntax-ns#"
   xmlns:svg="http://www.w3.org/2000/svg"
   xmlns="http://www.w3.org/2000/svg"
   xmlns:sodipodi="http://sodipodi.sourceforge.net/DTD/sodipodi-0.dtd"
   xmlns:inkscape="http://www.inkscape.org/namespaces/inkscape"
   width="16"
   height="16"
   viewBox="0 0 4.2333332 4.2333332"
   version="1.1"
   id="svg8"
   inkscape:version="0.92+devel (305337db3c, 2017-08-09, custom)"
   sodipodi:docname="glyph-user.svg">
  <defs
     id="defs2" />
  <sodipodi:namedview
     id="base"
     pagecolor="#002466"
     bordercolor="#ffffff"
     borderopacity="0.38039216"
     inkscape:pageopacity="1"
     inkscape:pageshadow="2"
     inkscape:zoom="10.137867"
     inkscape:cx="55.90616"
     inkscape:cy="27.302424"
     inkscape:document-units="px"
     inkscape:current-layer="svg8"
     inkscape:document-rotation="0"
     showgrid="false"
     inkscape:showpageshadow="false"
     borderlayer="true"
     inkscape:window-width="1920"
     inkscape:window-height="1027"
     inkscape:window-x="0"
     inkscape:window-y="24"
     inkscape:window-maximized="1"
     units="px" />
  <metadata
     id="metadata5">
    <rdf:RDF>
      <cc:Work
         rdf:about="">
        <dc:format>image/svg+xml</dc:format>
        <dc:type
           rdf:resource="http://purl.org/dc/dcmitype/StillImage" />
        <dc:title></dc:title>
      </cc:Work>
    </rdf:RDF>
  </metadata>
  <path
     style="opacity:1;vector-effect:none;fill:#d0d0d0;stroke:none;stroke-width:0.57087183;stroke-linecap:round"
     d="M 2.1168686,3.0118768e-8 A 0.78701116,0.78701116 0 0 0 1.3296392,0.78682607 0.78701116,0.78701116 0 0 0 2.033982,1.5696086 C 1.4160619,1.6004376 0.85020325,1.9955132 0.53472595,2.6297612 v 1.603572 H 3.6986072 V 2.6649379 C 3.3882259,2.013272 2.8160846,1.6037877 2.1884353,1.5700129 A 0.78701116,0.78701116 0 0 0 2.9036953,0.78682607 0.78701116,0.78701116 0 0 0 2.1168686,3.0118768e-8 Z"
     id="path4264"
     inkscape:connector-curvature="0"
     inkscape:label="#" />
</svg>
